X:58
T:Boy in the Gap, The
T:Boy in the Gaf, The
R:reel
H:See also #57
N:Often played with only two parts.
N:The third part was composed by Paddy Taylor.
Z:id:hn-reel-58
M:C|
K:D
D2FA d2cA|G2EF GFGE|D2FA dfed|cAGE FDD2:|
|:~f3g fedf|e2fd edcB|ABcd edcd|eaag eaag|
~f3g fedf|e2fd edcB|ABcd e2dB|A2GE FDD2:|
|:df~f2 df~f2|ce~e2 ce~e2|df~f2 df~f2|a2ge fdde|
f2ef dBAF|G2BG EFGE|D2FA dedc|A2GE FDD2:|
